public/library/gnosisscan-text-light.svg

<svg width="576" height="108" viewBox="0 0 576 108" fill="none" xmlns="http://www.w3.org/2000/svg">
<path d="M126.817 53.3831V53.5076C126.817 82.875 150.591 106.685 179.922 106.685H202.363V92.8915H180.284C158.248 92.8915 140.435 74.7688 140.91 52.593C141.369 31.0342 159.468 14.0208 181.007 14.0208H202.363V0.35715H179.776C150.527 0.35715 126.817 24.0968 126.817 53.3831ZM526.761 0.35715H477.268V106.68H490.918V49.8441C490.918 30.0601 506.934 14.0208 526.691 14.0208C546.448 14.0208 562.469 30.0601 562.469 49.8441V106.685H576V49.6601C576.005 22.4301 553.959 0.35715 526.761 0.35715ZM279.718 35.9964C279.718 38.9348 278.681 41.4132 276.608 43.437C274.534 45.4663 272.083 46.4728 269.253 46.4728H237.703C234.771 46.4728 232.293 45.4609 230.268 43.437C228.243 41.4132 227.234 38.9348 227.234 35.9964V0.35715H213.583V106.68H227.234V70.3261C227.234 67.3877 228.243 64.9093 230.268 62.8855C232.288 60.8616 234.766 59.8497 237.703 59.8497H269.253C272.083 59.8497 274.54 60.8616 276.608 62.8855C278.681 64.9147 279.718 67.3931 279.718 70.3261V106.68H293.217V0.35715H279.718V35.9964ZM409.028 0.35715V106.685H466.053V0.35715H409.028ZM437.538 50.8452C427.365 50.8452 419.114 42.582 419.114 32.3816C419.114 22.1866 427.359 13.918 437.538 13.918C447.716 13.918 455.961 22.1812 455.961 32.3816C455.961 42.582 447.716 50.8452 437.538 50.8452ZM359.054 6.01202C357.251 2.00762 354.702 0 351.403 0C348.104 0 345.55 2.00762 343.752 6.01202L298.287 106.68H404.076L359.054 6.01202ZM351.403 89.2226C341.23 89.2226 332.98 80.9594 332.98 70.759C332.98 60.564 341.225 52.2954 351.403 52.2954C361.576 52.2954 369.827 60.5586 369.827 70.759C369.827 80.954 361.576 89.2226 351.403 89.2226ZM17.7431 47.4468C17.7431 44.1838 18.8177 41.2075 20.6697 38.8482L40.3081 58.5239C37.9161 60.3854 34.9463 61.4569 31.7281 61.4569C23.9689 61.4623 17.6999 55.1797 17.7431 47.4468ZM76.1615 61.419C83.8776 61.4623 90.1465 55.1797 90.1465 47.409C90.1465 44.1838 89.072 41.2075 87.22 38.8103L67.5816 58.486C69.9304 60.3421 72.9002 61.419 76.1615 61.419ZM91.3453 34.7626C94.2341 38.2367 95.9673 42.6145 95.9673 47.4901C95.9673 58.4427 87.0958 67.3282 76.1615 67.3282C71.3343 67.3282 66.9228 65.5911 63.4563 62.7015L53.9259 72.2471L44.3956 62.7015C40.9291 65.5966 36.5554 67.3282 31.6903 67.3282C20.7561 67.3282 11.8845 58.4427 11.8845 47.4901C11.8845 42.6524 13.6178 38.2313 16.5066 34.7626L12.0519 30.2982L7.80244 26.0395C2.8456 34.2215 0 43.7725 0 54.0216C0 83.8653 24.1363 108 53.8827 108C83.6292 108 107.765 83.822 107.765 54.0216C107.846 43.7292 105.001 34.1836 100.049 26.0395L91.3453 34.7626ZM92.9111 16.7373C83.1324 6.45035 69.2716 0 53.9205 0C38.5748 0 24.7518 6.45035 14.9353 16.7373C13.6178 18.1443 12.3381 19.6324 11.1394 21.1584L53.8827 63.9786L96.6261 21.1206C95.5516 19.6324 94.2719 18.101 92.9111 16.7373ZM53.9205 53.9784L20.7939 20.7905C29.6223 11.905 41.2962 7.02395 53.9205 7.02395C66.5448 7.02395 78.262 11.8996 87.0472 20.785L53.9205 53.9784Z" fill="#04795B"/>
</svg>

<svg xmlns="http://www.w3.org/2000/svg" width="576" height="108" fill="none" viewBox="0 0 576 108"><path fill="#04795b" d="M126.817 53.383v.125c0 29.367 23.774 53.177 53.105 53.177h22.441V92.891h-22.079c-22.036 0-39.849-18.122-39.374-40.298.459-21.559 18.558-38.572 40.097-38.572h21.356V.357h-22.587c-29.249 0-52.959 23.74-52.959 53.026M526.761.357h-49.493V106.68h13.65V49.844c0-19.784 16.016-35.823 35.773-35.823s35.778 16.04 35.778 35.823v56.841H576V49.66C576.005 22.43 553.959.357 526.761.357m-247.043 35.64q0 4.406-3.11 7.44c-2.074 2.03-4.525 3.036-7.355 3.036h-31.55q-4.398 0-7.435-3.036t-3.034-7.44V.356h-13.651V106.68h13.651V70.326q-.002-4.406 3.034-7.44 3.03-3.036 7.435-3.036h31.55c2.83 0 5.287 1.012 7.355 3.035q3.11 3.043 3.11 7.441v36.354h13.499V.357h-13.499zM409.028.356v106.328h57.025V.357zm28.51 50.488c-10.173 0-18.424-8.263-18.424-18.463 0-10.195 8.245-18.464 18.424-18.464s18.423 8.263 18.423 18.464-8.245 18.463-18.423 18.463M359.054 6.012C357.251 2.008 354.702 0 351.403 0s-5.853 2.008-7.651 6.012L298.287 106.68h105.789zm-7.651 83.21c-10.173 0-18.423-8.263-18.423-18.463 0-10.195 8.245-18.464 18.423-18.464 10.173 0 18.424 8.264 18.424 18.464 0 10.195-8.251 18.464-18.424 18.464M17.743 47.448c0-3.263 1.075-6.24 2.927-8.599l19.638 19.676a13.9 13.9 0 0 1-8.58 2.933c-7.76.005-14.028-6.277-13.985-14.01m58.419 13.972c7.716.043 13.984-6.24 13.984-14.01a14 14 0 0 0-2.926-8.599L67.582 58.486c2.348 1.856 5.318 2.933 8.58 2.933m15.183-26.656c2.89 3.474 4.622 7.852 4.622 12.727 0 10.953-8.871 19.838-19.805 19.838-4.828 0-9.24-1.737-12.706-4.626l-9.53 9.545-9.53-9.545c-3.467 2.895-7.84 4.626-12.706 4.626-10.934 0-19.806-8.885-19.806-19.838 0-4.838 1.734-9.259 4.623-12.727l-4.455-4.465-4.25-4.258A53.76 53.76 0 0 0 0 54.022C0 83.865 24.136 108 53.883 108c29.746 0 53.882-24.178 53.882-53.978a52.8 52.8 0 0 0-7.716-27.982zm1.566-18.026C83.132 6.45 69.271 0 53.921 0 38.575 0 24.75 6.45 14.935 16.737a68 68 0 0 0-3.796 4.421l42.744 42.82 42.743-42.857a37 37 0 0 0-3.715-4.384m-38.99 37.241L20.793 20.791C29.622 11.905 41.296 7.024 53.92 7.024c12.625 0 24.342 4.876 33.127 13.761z"/></svg>
